!!!COM: Bach, Johann Sebastian
!!!OPR: Joh. Seb. Bachs vierstimmige Choralges‰nge
!!!XEN: Four-part Chorales
!!!OTL: 42. Des heil'gen Geistes reiche Gnad'
!!!SCT: BWV 295
!!!SCA: Thematisch-systematisches Verzeichnis der musikalischen Werke Johann Sebastian Bach: Bach-Werke-Verzeichnis (Schmieder)
!!!YOR: Bach Gesellschaft Edition xxxix
!!!ENC: Steven Rasmussen
!!!CDT: 1685/3//-1750/7/28/
!!!OCY: Deutschland
!!!YEC: Copyright (c) 1994, 2000 Center for Computer Assisted Research in the Humanities
!!!YEM: Rights to all derivative editions reserved
!!!YEN: United States of America
**kern	**silbe	**kern	**silbe	**kern	**silbe	**kern	**silbe
*I:[BASSO]	*I:[BASSO]	*I:[TENORE]	*I:[TENORE]	*I:[ALTO]	*I:[ALTO]	*I:[SOPRANO]	*I:[SOPRANO]
*clefF4	*	*clefGv2	*	*clefG2	*	*clefG2	*
*k[b-]	*	*k[b-]	*	*k[b-]	*	*k[b-]	*
*d:	*	*d:	*	*d:	*	*d:	*
*M3/4	*	*M3/4	*	*M3/4	*	*M3/4	*
=1-	=1-	=1-	=1-	=1-	=1-	=1-	=1-
8DL	.	8FL	.	4A	.	4d	Des
8EJ	.	8GJ	.	.	.	.	.
8FL	.	8AL	.	4A	.	4d	heil'-
8EJ	.	8GJ	.	.	.	.	.
8FL	.	4A	.	4d	.	4d	-gen
8DJ	.	.	.	.	.	.	.
=2	=2	=2	=2	=2	=2	=2	=2
4C#	.	8AL	.	4e	.	2a	Gei-
.	.	8G	.	.	.	.	.
4D	.	8F	.	4d	.	.	.
.	.	8EJ	.	.	.	.	.
4FF#	.	4D	.	4a	.	4a	-stes
=3	=3	=3	=3	=3	=3	=3	=3
8GGL	.	2d	.	4a	.	2b-	rei-
8AAJ	.	.	.	.	.	.	.
4BB-	.	.	.	8gL	.	.	.
.	.	.	.	8f#J	.	.	.
4GG	.	4d	.	4g	.	4b-	-che
=4	=4	=4	=4	=4	=4	=4	=4
2.D;	.	2.d;	.	(4g	.	2.a;	Gnad'
.	.	.	.	2f;)	.	.	.
=5	=5	=5	=5	=5	=5	=5	=5
4D	.	8AL	.	4f	.	4f	die
.	.	8dJ	.	.	.	.	.
4E	.	8dL	.	8fL	.	4g	Her-
.	.	8cJ	.	8eJ	.	.	.
4F#	.	4c	.	8e-L	.	4a	-zen
.	.	.	.	8dJ	.	.	.
=6	=6	=6	=6	=6	=6	=6	=6
4G	.	8B-L	der	4d	der	2.b-	der
.	.	8AJ	.	.	.	.	.
8CL	.	4G	.	8eL	.	.	.
8DJ	.	.	.	8fJ	.	.	.
4E	.	4c	A-	[4g	A-	.	.
=7	=7	=7	=7	=7	=7	=7	=7
4F	.	4c	-po-	8gL]	.	4a	A-
.	.	.	.	8fJ	.	.	.
4BB-	.	4d	.	4f	-po-	4.g	-po-
4C	.	8.cL	-stel	4e	-stel	.	.
.	.	.	.	.	.	8f	-stel
.	.	16B-Jk	.	.	.	.	.
=8	=8	=8	=8	=8	=8	=8	=8
2FF;	.	2A;	.	2c;	.	2f;	hat
4C	.	4c	.	4e	.	4g	er-
=9	=9	=9	=9	=9	=9	=9	=9
8FFL	.	2c	.	2f	.	2a	-f√ºllt
8GG	.	.	.	.	.	.	.
8AA	.	.	.	.	.	.	.
8BB-J	.	.	.	.	.	.	.
8CL	.	8cL	.	8eL	.	4g	mit
8DJ	.	8B-J	.	8dJ	.	.	.
=10	=10	=10	=10	=10	=10	=10	=10
8EL	sei-	4B-	sei-	8c#L	sei-	2g	sei-
8DJ	.	.	.	8dJ	.	.	.
4C#	.	8AL	.	4e	.	.	.
.	.	8BnJ	.	.	.	.	.
4AA	-ner	4c#	.	[4e	-ner	4a	-ner
=11	=11	=11	=11	=11	=11	=11	=11
8DL	G√º-	4A	-ner	4e]	.	2f	G√º-
8EJ	.	.	.	.	.	.	.
4F	.	4A	G√º-	8dL	G√º-	.	.
.	.	.	.	8c#J	.	.	.
4GG#	-tig-	4Bn	-tig-	4d	-tig-	4f	-tig-
=12	=12	=12	=12	=12	=12	=12	=12
2.AA;	-keit,	(4E	-keit,	(4d	-keit,	2.e;	-keit,
.	.	2A;)	.	2c#;)	.	.	.
=13	=13	=13	=13	=13	=13	=13	=13
8FL	.	4A	.	4d	.	4d	ge-
8EJ	.	.	.	.	.	.	.
8DL	.	4A	.	4A	.	4e	-schenkt
8C#J	.	.	.	.	.	.	.
[4D	der	4A	.	4d	.	4f	der
=14	=14	=14	=14	=14	=14	=14	=14
4D]	.	4B-	Spra-	4.e	Spra-	2.g	Spra-
8C#L	Spra-	4A	.	.	.	.	.
8BBn	.	.	.	8d	.	.	.
8C#	.	[4A	-chen	[4e	-chen	.	.
8AAJ	.	.	.	.	.	.	.
=15	=15	=15	=15	=15	=15	=15	=15
4D	-chen	4A]	.	8eL]	.	4f	-chen
.	.	.	.	8dJ	.	.	.
4GG	Un-	4B-	Un-	4d	Un-	4.e	Un-
4AA	-ter-	8.AL	-ter-	4c#	-ter-	.	.
.	.	.	.	.	.	8d	-ter-
.	.	16GJk	.	.	.	.	.
=16	=16	=16	=16	=16	=16	=16	=16
2.DD;	-scheid.	2.F#;	-scheid.	2.A;	-scheid.	2.d;	-scheid.
==|!	==|!	==|!	==|!	==|!	==|!	==|!	==|!
*-	*-	*-	*-	*-	*-	*-	*-
!!!RWG: Key is interpreted using the Humdrum key tool.
!!!END: 1994/05/17
!!!EMD: Converted from MuseData to Humdrum Dec 19, 2000, by Andreas Kornstaedt using muse2kern.
!!!EED: Craig Stuart Sapp
!!!EEV: 2024/03/31
!!!ONB: Some non-unicode characters
